!!!OTL: 701. Die Unbestaendige. / [Du bist von Flandern.]
!!!ODT: 1840
!!!ARE: Europa, Mitteleuropa, Deutschland, Ruppin, Roennebeck
!!!SCT: E0701A
!!!TXL: @@DE
!!!YEM: Copyright 1995, estate of Helmut Schaffrath.
**kern
*ICvox
*M3/4
*k[]
*C:
=1
!LO:TX:a:t=Mel. aus Rönnebeck bei Ruppin, 1854.
{8.cc
16dd
8cc
8g
16aL
16bJ
16cc/L
16aJ
=2
(4g
4f)
4e}
=3
{8.cc
16dd
8cc
8g
16aL
16bJ
16ccL
16aJ
=4
(4g
4f)
4e}
=5
{8cc
8ee
8ee
8ee
8ee
8cc
=6
8b
8dd
8dd
8dd
8dd
8b}
=7
{4cc
4a
4dd
=8
4cc
4r
4r}
==
!!!AGN: Liebes - Lied, Leid, Klage
!!!ONB: ESAC (Essen Associative Code) Database: ERK2
!!!AMT: simple triple
!!!AIN: vox
!!!EED: Helmut Schaffrath
!!!EEV: 1.0
!!!GTL: Liebeslieder [Neuere (aus dem 18. bis 19. Jahrh.) - Liebesleid] 678-740
!!!URL-scan: https://rosdok.uni-rostock.de/mcrviewer/recordIdentifier/rosdok_ppn745177662/iview2/phys_0506.iview2?x=193.8995864193107&y=276.76330051617697&scale=0.7029437510502773&rotation=0&layout=singlePageLayout
!!!ENC: Anna Maria Matuszewska
!!!EEV: 2024/12/16
*-
